img/icons/lk06.svg

<svg width="32" height="32" viewBox="0 0 32 32" fill="none" xmlns="http://www.w3.org/2000/svg">
<g style="mix-blend-mode:multiply">
<path fill-rule="evenodd" clip-rule="evenodd" d="M16.0001 17.4142L11.7072 21.7071L10.293 20.2929L14.5859 16L10.293 11.7071L11.7072 10.2929L16.0001 14.5858L20.293 10.2929L21.7072 11.7071L17.4143 16L21.7072 20.2929L20.293 21.7071L16.0001 17.4142Z" fill="#FF0000"/>
</g>
</svg>

<svg xmlns="http://www.w3.org/2000/svg" fill="none" viewBox="0 0 32 32"><path fill="red" fill-rule="evenodd" d="m16 17.414-4.293 4.293-1.414-1.414L14.586 16l-4.293-4.293 1.414-1.414L16 14.586l4.293-4.293 1.414 1.414L17.414 16l4.293 4.293-1.414 1.414z" clip-rule="evenodd" style="mix-blend-mode:multiply"/></svg>
